X:1
T:V\aarsang
C:anon.
L:1/8
M:2/4
I:linebreak $
K:D
V:1 treble 
V:1
"^Lively" A, |"D" DE FG |"D" A2 AA |"G" dc dB |"D" A2 z A |"G" dc dB |"D" AF DF |"A7" GE DC | %8
"D" D2 z E |"D" FF"A" FE |"Bm" D2 DF |$"F#" AA AF |S"G" D2 DD |"D" Dd dd |"G" GB BB |"D" AF"A" GE | %16
"D" F2 z D |"D" Dd dd |"G" GB BB |"D" Ad"A7" ce |"D" d2 z |] %21
